Origami/32x32/apps/ring.svg

<svg width="32" height="32" version="1.1" viewBox="0 0 32 32" xmlns="http://www.w3.org/2000/svg">
 <rect transform="matrix(.8660254 -.5 .5 .8660254 0 0)" x="1.36" y="7.72" width="8" height="30" rx="2.667" ry="3" style="opacity:.2"/>
 <rect transform="matrix(.8660254 -.5 .5 .8660254 0 0)" x="1.86" y="6.86" width="8" height="30" rx="2.667" ry="3" style="fill:#008ca2"/>
 <rect transform="matrix(-.8660254 -.5 -.5 .8660254 0 0)" x="-26.36" y="-8.28" width="8" height="30" rx="2.667" ry="3" style="opacity:.2"/>
 <path d="m10.671875 2.0273438c-0.352182 0.0285033-0.6977261 0.1317395-1.0175781 0.3164062l-2.3085938 1.3320312c-0.9622743 0.5555694-1.4041415 1.6859599-1.2109375 2.8242188 0.1234491-0.7596654 0.5357996-1.4344277 1.2109375-1.8242188l2.3085938-1.3320312c1.2794081-0.7386667 2.9795471-0.1756623 3.8105471 1.2636719l12 20.785156c0.205979 0.356766 0.336715 0.7323 0.40039 1.107422 0.110491-0.679925-0.007905-1.427618-0.40039-2.107422l-12-20.785156c-0.62325-1.0795007-1.736424-1.6655882-2.792969-1.5800781z" style="fill:#ffffff;opacity:.1"/>
 <rect transform="matrix(-.8660254 -.5 -.5 .8660254 0 0)" x="-25.86" y="-9.14" width="8" height="30" rx="2.667" ry="3" style="fill:#57c6d7"/>
 <path d="m21.328125 2.0273438c-1.056545-0.0855101-2.169719 0.5005774-2.792969 1.5800781l-12 20.785156c-0.392485 0.679804-0.5108815 1.427497-0.4003906 2.107422 0.0636757-0.375122 0.1944118-0.750656 0.4003906-1.107422l12-20.785156c0.831-1.4393342 2.531139-2.0023386 3.810547-1.2636719l2.308594 1.3320312c0.675138 0.3897911 1.087488 1.0645534 1.210937 1.8242188 0.193204-1.1382589-0.248663-2.2686494-1.210937-2.8242188l-2.308594-1.3320312c-0.319852-0.1846667-0.665396-0.2879029-1.017578-0.3164062z" style="fill:#ffffff;opacity:.1"/>
 <rect transform="matrix(0,-1,-1,0,0,0)" x="-21" y="-31" width="8" height="30" rx="2.667" ry="3" style="opacity:.2"/>
 <rect transform="matrix(0,-1,-1,0,0,0)" x="-20" y="-31" width="8" height="30" rx="2.667" ry="3" style="fill:#94d4de"/>
 <path d="m4 12c-1.662 0-3 1.188682-3 2.666016v1c0-1.477334 1.338-2.666016 3-2.666016h24c1.662 0 3 1.188682 3 2.666016v-1c0-1.477334-1.338-2.666016-3-2.666016h-24z" style="fill:#ffffff;opacity:.1"/>
</svg>

<svg xmlns="http://www.w3.org/2000/svg" width="32" height="32" version="1.1" viewBox="0 0 32 32">
 <rect style="opacity:0.2" width="8" height="30" x="1.36" y="7.72" rx="2.667" ry="3" transform="matrix(0.8660254,-0.5,0.5,0.8660254,0,0)"/>
 <rect style="fill:#008ca2" width="8" height="30" x="1.86" y="6.86" rx="2.667" ry="3" transform="matrix(0.8660254,-0.5,0.5,0.8660254,0,0)"/>
 <rect style="opacity:0.2" width="8" height="30" x="-26.36" y="-8.28" rx="2.667" ry="3" transform="matrix(-0.8660254,-0.5,-0.5,0.8660254,0,0)"/>
 <path style="opacity:0.1;fill:#ffffff" d="M 10.671875 2.0273438 C 10.319693 2.0558471 9.9741489 2.1590833 9.6542969 2.34375 L 7.3457031 3.6757812 C 6.3834288 4.2313506 5.9415616 5.3617411 6.1347656 6.5 C 6.2582147 5.7403346 6.6705652 5.0655723 7.3457031 4.6757812 L 9.6542969 3.34375 C 10.933705 2.6050833 12.633844 3.1680877 13.464844 4.6074219 L 25.464844 25.392578 C 25.670823 25.749344 25.801559 26.124878 25.865234 26.5 C 25.975725 25.820075 25.857329 25.072382 25.464844 24.392578 L 13.464844 3.6074219 C 12.841594 2.5279212 11.72842 1.9418337 10.671875 2.0273438 z"/>
 <rect style="fill:#57c6d7" width="8" height="30" x="-25.86" y="-9.14" rx="2.667" ry="3" transform="matrix(-0.8660254,-0.5,-0.5,0.8660254,0,0)"/>
 <path style="opacity:0.1;fill:#ffffff" d="M 21.328125 2.0273438 C 20.27158 1.9418337 19.158406 2.5279212 18.535156 3.6074219 L 6.5351562 24.392578 C 6.1426712 25.072382 6.0242747 25.820075 6.1347656 26.5 C 6.1984413 26.124878 6.3291774 25.749344 6.5351562 25.392578 L 18.535156 4.6074219 C 19.366156 3.1680877 21.066295 2.6050833 22.345703 3.34375 L 24.654297 4.6757812 C 25.329435 5.0655723 25.741785 5.7403346 25.865234 6.5 C 26.058438 5.3617411 25.616571 4.2313506 24.654297 3.6757812 L 22.345703 2.34375 C 22.025851 2.1590833 21.680307 2.0558471 21.328125 2.0273438 z"/>
 <rect style="opacity:0.2" width="8" height="30" x="-21" y="-31" rx="2.667" ry="3" transform="matrix(0,-1,-1,0,0,0)"/>
 <rect style="fill:#94d4de" width="8" height="30" x="-20" y="-31" rx="2.667" ry="3" transform="matrix(0,-1,-1,0,0,0)"/>
 <path style="opacity:0.1;fill:#ffffff" d="M 4 12 C 2.338 12 1 13.188682 1 14.666016 L 1 15.666016 C 1 14.188682 2.338 13 4 13 L 28 13 C 29.662 13 31 14.188682 31 15.666016 L 31 14.666016 C 31 13.188682 29.662 12 28 12 L 4 12 z"/>
</svg>
